img/map-markers/type.svg

<svg width="150" height="150" viewBox="0 0 150 150" fill="none" xmlns="http://www.w3.org/2000/svg">
<g filter="url(#filter0_d_2_148)">
<circle cx="75" cy="65" r="25" fill="white"/>
</g>
<circle cx="75" cy="65" r="25" fill="white"/>
<circle cx="75.236" cy="64.7641" r="21.934" fill="#FC6733"/>
<path d="M66.5638 67.1408C66.2163 66.6554 66.0583 66.0312 66.153 65.4419C66.2163 64.818 66.5005 64.2978 66.9428 63.9164L71.365 60.1374L67.8587 57.1903C67.606 56.9823 67.2585 56.9823 67.0058 57.1903L60.2774 62.8764C60.1195 63.015 60.0247 63.1884 60.0247 63.3964C59.9617 63.6046 60.0247 63.8126 60.1512 63.986C60.2774 64.1594 60.4987 64.2634 60.6249 64.2634H61.8569V69.9838C61.8569 70.3998 62.1728 70.7466 62.5518 70.7466H67.985V68.0423C67.448 67.9729 66.9111 67.6261 66.5636 67.1408L66.5638 67.1408Z" fill="white"/>
<path d="M89.7177 62.8764L82.9578 57.156C82.7051 56.948 82.3576 56.948 82.1048 57.156L78.5985 60.1376L83.0526 63.9166C83.4948 64.298 83.779 64.8528 83.8423 65.4422C83.9055 66.0661 83.779 66.6557 83.4315 67.1411C83.0841 67.6264 82.5786 67.9384 82.0101 68.0078V70.7466H87.4433C87.8223 70.7466 88.1383 70.3998 88.1383 69.9839V64.2632H89.307C89.5282 64.2632 89.7177 64.1592 89.8439 63.9858C90.0967 63.6392 90.0334 63.1538 89.7177 62.8765V62.8764Z" fill="white"/>
<path d="M82.2002 65.13L75.4403 59.4095C75.1876 59.2015 74.8401 59.2015 74.5873 59.4095L67.7959 65.13C67.6379 65.2686 67.5431 65.442 67.5116 65.6499C67.4801 65.8579 67.5431 66.0659 67.6379 66.2393C67.7641 66.4127 67.9854 66.5513 68.1116 66.5513H69.3436V72.2372C69.3436 72.6531 69.6595 72.9999 70.0385 72.9999H75.8823V67.3837C75.8823 67.1757 76.0403 67.0023 76.2298 67.0023H77.8725C78.062 67.0023 78.22 67.1757 78.22 67.3837V72.9656H79.8626C80.2416 72.9656 80.5575 72.6188 80.5575 72.2028L80.5573 66.5169H81.726C81.9473 66.5169 82.1368 66.4129 82.263 66.2049C82.5475 65.8581 82.4842 65.3728 82.2 65.13L82.2002 65.13ZM74.082 69.1866C74.082 69.3946 73.924 69.568 73.7345 69.568H72.0919C71.9024 69.568 71.7444 69.3946 71.7444 69.1866V67.3837C71.7444 67.1757 71.9024 67.0023 72.0919 67.0023H73.7345C73.924 67.0023 74.082 67.1757 74.082 67.3837V69.1866Z" fill="white"/>
<defs>
<filter id="filter0_d_2_148" x="0" y="0" width="150" height="150" filterUnits="userSpaceOnUse" color-interpolation-filters="sRGB">
<feFlood flood-opacity="0" result="BackgroundImageFix"/>
<feColorMatrix in="SourceAlpha" type="matrix" values="0 0 0 0 0 0 0 0 0 0 0 0 0 0 0 0 0 0 127 0" result="hardAlpha"/>
<feOffset dy="10"/>
<feGaussianBlur stdDeviation="25"/>
<feColorMatrix type="matrix" values="0 0 0 0 0 0 0 0 0 0 0 0 0 0 0 0 0 0 0.1 0"/>
<feBlend mode="normal" in2="BackgroundImageFix" result="effect1_dropShadow_2_148"/>
<feBlend mode="normal" in="SourceGraphic" in2="effect1_dropShadow_2_148" result="shape"/>
</filter>
</defs>
</svg>

<svg width="150" height="150" viewBox="0 0 150 150" fill="none" xmlns="http://www.w3.org/2000/svg"><circle cx="75" cy="65" r="25" fill="#fff" filter="url(#a)"/><circle cx="75" cy="65" r="25" fill="#fff"/><circle cx="75.236" cy="64.764" r="21.934" fill="#FC6733"/><path d="M66.564 67.14a2.327 2.327 0 0 1-.411-1.698 2.279 2.279 0 0 1 .79-1.526l4.422-3.779-3.506-2.947a.66.66 0 0 0-.853 0l-6.729 5.686a.679.679 0 0 0-.252.52c-.063.209 0 .417.126.59s.348.277.474.277h1.232v5.72c0 .417.316.764.695.764h5.433v-2.705c-.537-.07-1.074-.416-1.421-.901zm23.154-4.264l-6.76-5.72a.661.661 0 0 0-.853 0l-3.507 2.982 4.455 3.779c.442.381.726.936.79 1.525.063.624-.064 1.214-.412 1.7a2.053 2.053 0 0 1-1.42.866v2.739h5.432c.38 0 .695-.347.695-.763v-5.72h1.169c.221 0 .41-.105.537-.278a.833.833 0 0 0-.126-1.11z" fill="#fff"/><path d="M82.2 65.13l-6.76-5.72a.661.661 0 0 0-.853 0l-6.791 5.72a.838.838 0 0 0-.284.52.95.95 0 0 0 .126.59c.126.173.347.311.474.311h1.232v5.686c0 .416.316.763.695.763h5.843v-5.616c0-.208.158-.382.348-.382h1.642c.19 0 .348.174.348.382v5.582h1.643c.379 0 .695-.347.695-.763v-5.686h1.168c.221 0 .41-.104.537-.312.284-.347.221-.832-.063-1.075zm-8.118 4.057c0 .208-.158.381-.347.381h-1.643c-.19 0-.348-.173-.348-.381v-1.803c0-.208.158-.382.348-.382h1.642c.19 0 .348.174.348.382v1.803z" fill="#fff"/><defs><filter id="a" x="0" y="0" width="150" height="150" filterUnits="userSpaceOnUse" color-interpolation-filters="sRGB"><feFlood flood-opacity="0" result="BackgroundImageFix"/><feColorMatrix in="SourceAlpha" values="0 0 0 0 0 0 0 0 0 0 0 0 0 0 0 0 0 0 127 0" result="hardAlpha"/><feOffset dy="10"/><feGaussianBlur stdDeviation="25"/><feColorMatrix values="0 0 0 0 0 0 0 0 0 0 0 0 0 0 0 0 0 0 0.1 0"/><feBlend in2="BackgroundImageFix" result="effect1_dropShadow_2_148"/><feBlend in="SourceGraphic" in2="effect1_dropShadow_2_148" result="shape"/></filter></defs></svg>
